!!! OTL: Berkowitz499
!!! Chapter: 1
!!! Section: IV
!!! Page: 124
!!! Mode: 
!!! Encoder: DJB
**kern
*staff1
*I"Piano
=1-
*clefF4
*k[f#c#]
*D:
*M4/4
4r
4r
4r
8r
[8BB/
=2
8BB/L]
8C#/
8D/
8E/J
8E#\
4c#\
8A\
=3
8G\L
8E\
8G\
[8G#\J
8G#\L]
8E\J
4Gn\
=4
8F#\L
8E#\
8F#\
8e\J
8d\
4En\
8B\
=5
4B-\
4A\
4r
8r
[8E\
=6
8E\L]
8F#\
8G\
8A\J
8B-\
4f#\
8e\
=7
!!linebreak:original
8d\L
8F#\
8cn\
[8B\J
2B\]
=8
8B-\L
8E\
8Bn\
[8A\J
8A\L]
8AA\
8G\
8F#\J
=9
4.E\
8F#\
4D\
4r
==
*-
